public/illustrations/_math.svg

<svg width="267" height="218" viewBox="0 0 267 218" fill="none" xmlns="http://www.w3.org/2000/svg">
<path d="M230.818 183.487C230.747 186.092 230.69 188.514 230.747 190.836C230.747 197.575 230.832 204.23 230.818 210.983C230.86 211.493 230.804 212.088 230.761 212.484C230.379 216.066 229.345 217.27 225.522 217.27C219.689 217.256 213.955 217.142 208.235 217.043C204.015 217.001 199.782 216.944 195.478 216.788C193.58 216.689 191.584 216.477 189.814 216.08C186.076 215.273 184.944 213.645 184.83 209.907C184.83 204.272 184.831 198.637 184.93 192.903V183.233C183.443 183.176 181.857 183.006 180.441 183.048C173.093 182.978 165.844 183.006 158.51 182.935C157.49 183.034 156.499 182.935 155.409 182.709C154.22 182.581 153.172 181.972 152.464 181.08C151.756 180.188 151.374 179.056 151.501 177.852C151.629 166.285 151.629 154.816 151.869 143.149C151.869 139.327 153.243 137.854 157.122 137.259C159.487 136.806 161.922 136.665 164.329 136.722C170.36 136.764 176.364 137.189 182.48 137.344C183.386 137.344 184.208 137.231 185.425 137.16C185.524 131.426 185.524 125.791 185.524 120.156C185.553 117.041 185.468 114.011 185.397 110.981C185.284 110.16 185.453 109.48 185.737 108.702C186.02 107.923 186.388 107.257 186.94 106.818C187.605 106.28 188.158 105.841 188.88 105.615C189.602 105.388 190.423 105.275 191.216 105.36C202.557 105.658 213.799 106.054 225.027 106.436C229.232 106.677 230.959 108.376 231.002 112.708C231.03 119.958 230.988 127.108 230.931 134.244C230.874 135.745 231.016 137.274 231.016 139.086C232.814 139.27 234.315 139.341 235.816 139.397L257.379 140.176L259.277 140.275C264.586 140.544 266.299 142.427 266.016 147.935C265.875 150.229 265.733 152.537 265.676 154.944C265.308 162.15 265.053 169.272 264.699 176.479C264.331 181.873 262.632 183.615 257.309 183.544C250.059 183.572 242.909 183.53 235.773 183.473C234.358 183.53 232.743 183.558 231.016 183.671L230.832 183.445L230.818 183.487ZM194.444 207.401L221.289 207.741V200.095C221.445 193.058 221.289 185.894 221.53 178.971C221.586 175.658 223.342 174.228 226.698 173.888C227.519 173.775 228.227 173.746 229.02 173.831C233.437 173.902 237.755 174.058 242.173 174.128C246.59 174.199 250.923 174.157 255.468 174.128L256.629 149.889C254.732 149.79 253.217 149.733 251.716 149.662C244.594 149.407 237.359 149.238 230.152 148.884C222.946 148.53 221.147 146.519 221.388 139.397C221.501 135.49 221.601 131.766 221.714 127.858C221.714 124.035 221.714 120.213 221.572 115.965L195.081 115.158L194.996 119.774C194.812 126.301 195.011 132.87 194.628 139.369C194.246 145.868 192.193 147.17 186.062 147.015C179.337 146.802 172.725 146.505 166 146.293C164.499 146.236 163.083 146.293 161.27 146.293L161.2 173.463C161.794 173.52 162.587 173.605 163.097 173.562C170.544 173.562 178.006 173.534 185.425 173.718C187.237 173.718 189.036 173.902 190.806 174.284C191.995 174.412 193.127 175.134 193.935 176.125C194.742 177.116 195.011 178.348 194.883 179.551C194.869 184.479 194.756 189.307 194.727 194.234C194.487 198.439 194.614 202.885 194.529 207.5L194.444 207.387V207.401Z" fill="#102185"/>
<path d="M0.314385 146.208C1.12143 145.132 2.28238 144.325 3.44339 143.518C5.4964 142.711 7.69097 142.386 9.80061 142.343C39.4913 141.89 69.0404 141.409 98.6745 141.083C99.255 141.125 99.878 141.041 100.6 141.125C104.409 141.338 106.249 142.994 106.476 146.803C106.618 148.644 106.533 150.697 106.66 152.537C106.717 160.466 106.731 168.522 106.66 176.394C106.702 177.598 106.702 178.943 106.448 180.203C105.825 182.978 103.361 184.55 99.609 184.649C91.8218 184.748 84.2469 184.621 76.4596 184.734C53.8908 184.861 31.3218 184.975 8.80958 184.975C8.3565 184.975 7.73358 185.059 7.2805 185.059C2.53736 184.975 0.285992 182.738 0.0594531 178.037C-0.0396574 175.177 0.00281852 172.345 0.0594531 169.528C0.0877704 163.128 0.130343 156.728 0.15866 150.314C0.116185 149.111 0.201088 147.936 0.28604 146.336L0.328557 146.194L0.314385 146.208ZM97.0746 150.413C67.7095 150.81 38.7835 151.22 9.54585 151.659C9.68744 159.758 9.206 167.503 9.67323 175.12C19.0746 175.998 94.4695 175.347 97.3437 174.356L97.2161 150.442L97.0746 150.399V150.413Z" fill="#102185"/>
<path d="M71.9434 40.6696C74.2088 40.3298 76.6157 40.2307 79.0086 40.1316C95.3476 40.5563 111.63 41.1794 127.927 41.8024C141.477 42.2271 155.21 42.6943 168.76 43.119C176.774 43.3456 178.218 44.9596 177.921 52.846C177.708 60.0386 177.808 67.2029 177.666 74.5087C177.525 81.8146 175.217 84.3206 167.585 84.1932C161.808 84.1365 156.074 83.8817 150.227 83.7118C126.511 83.018 102.979 82.3808 79.2635 81.6871C77.2954 81.6871 75.4972 81.4323 73.515 81.1208C70.3576 80.512 69.1401 79.2519 68.8569 75.9813C68.6729 74.2822 68.701 72.6256 68.7152 70.9832C68.6161 62.9978 68.5312 54.9981 68.4321 47.0126C68.3471 45.7525 68.5736 44.4642 69.2674 43.4023C69.8904 42.213 70.9099 41.4484 71.8869 40.882L71.9434 40.6838V40.6696ZM77.8051 49.5329L78.1166 72.1725L168.208 74.6219L168.449 52.6479L77.876 49.6603L77.8051 49.5329Z" fill="#102185"/>
<path d="M137.837 7.75102C141.391 11.5738 141.972 16.487 140.372 21.8531C139.692 24.0619 138.63 26.1572 137.228 27.9696C135.827 29.7819 134.085 31.2968 131.947 32.387C123.749 36.8753 114.56 34.3834 110.03 26.3696C108.812 24.2883 108.147 22.0513 107.934 19.7151C107.722 17.379 107.934 14.9578 108.614 12.7491C109.293 10.5403 110.355 8.44484 111.885 6.56175C113.286 4.74945 115.212 3.29112 117.166 2.14427C118.879 1.13901 120.804 0.501851 122.744 0.176203C124.684 -0.149445 126.723 -0.0220034 128.549 0.544341C130.376 1.11068 132.329 1.94601 133.873 3.16365C135.416 4.38129 136.789 5.88211 137.795 7.5953L137.866 7.72268L137.837 7.75102ZM127.572 24.1043C129.526 22.9574 130.8 21.216 131.48 19.0214C132.032 16.8834 131.891 14.6747 130.928 12.7774C129.526 9.83241 124.5 8.82712 121.456 10.6253C119.629 11.7013 118.228 13.5136 117.548 15.7082C116.996 17.8461 117.208 20.1682 118.284 22.0088C118.709 22.7451 119.219 23.5945 119.941 23.9909C120.62 24.5856 121.456 24.8971 122.433 25.152C123.325 25.2794 124.231 25.4069 125.109 25.2229C125.986 25.0388 126.794 24.7273 127.572 24.1043Z" fill="#102185"/>
<path d="M107.368 114.436C102.257 106.28 105.74 94.8685 113.556 90.2812C120.876 85.9769 130.206 87.8883 134.114 93.9765C137.102 98.7905 139.126 103.35 137.413 109.112C136.804 111.434 135.87 113.473 134.468 115.271C133.066 117.069 131.325 118.598 129.258 119.816C121.201 124.545 111.843 122.322 107.184 114.379L107.383 114.436H107.368ZM124.585 111.887C126.412 110.811 127.814 108.999 128.564 106.918C129.314 104.836 128.975 102.571 128.139 100.603C126.851 97.5729 121.839 96.5817 118.794 98.3798C115.75 100.178 115.566 101.268 114.887 103.463C114.335 105.601 114.476 107.81 115.623 109.763C116.048 110.5 116.557 111.349 117.28 111.746C117.959 112.34 118.795 112.666 119.644 112.977C120.536 113.105 121.442 113.232 122.32 113.048C123.198 112.864 124.005 112.553 124.784 111.93L124.585 111.873V111.887Z" fill="#102185"/>
</svg>

<svg xmlns="http://www.w3.org/2000/svg" width="267" height="218" fill="none" viewBox="0 0 267 218"><path fill="#102185" d="M230.818 183.487c-.071 2.605-.128 5.027-.071 7.349 0 6.739.085 13.394.071 20.147.042.51-.014 1.105-.057 1.501-.382 3.582-1.416 4.786-5.239 4.786-5.833-.014-11.567-.128-17.287-.227-4.22-.042-8.453-.099-12.757-.255-1.898-.099-3.894-.311-5.664-.708-3.738-.807-4.87-2.435-4.984-6.173 0-5.635.001-11.27.1-17.004v-9.67c-1.487-.057-3.073-.227-4.489-.185-7.348-.07-14.597-.042-21.931-.113-1.02.099-2.011 0-3.101-.226a4.36 4.36 0 0 1-2.945-1.629c-.708-.892-1.09-2.024-.963-3.228.128-11.567.128-23.036.368-34.703 0-3.822 1.374-5.295 5.253-5.89 2.365-.453 4.8-.594 7.207-.537 6.031.042 12.035.467 18.151.622.906 0 1.728-.113 2.945-.184.099-5.734.099-11.369.099-17.004.029-3.115-.056-6.145-.127-9.175-.113-.821.056-1.501.34-2.279.283-.779.651-1.445 1.203-1.884.665-.538 1.218-.977 1.94-1.203s1.543-.34 2.336-.255c11.341.298 22.583.694 33.811 1.076 4.205.241 5.932 1.94 5.975 6.272.028 7.25-.014 14.4-.071 21.536-.057 1.501.085 3.03.085 4.842 1.798.184 3.299.255 4.8.311l21.563.779 1.898.099c5.309.269 7.022 2.152 6.739 7.66-.141 2.294-.283 4.602-.34 7.009-.368 7.206-.623 14.328-.977 21.535-.368 5.394-2.067 7.136-7.39 7.065-7.25.028-14.4-.014-21.536-.071-1.415.057-3.03.085-4.757.198l-.184-.226zm-36.374 23.914 26.845.34v-7.646c.156-7.037 0-14.201.241-21.124.056-3.313 1.812-4.743 5.168-5.083.821-.113 1.529-.142 2.322-.057 4.417.071 8.735.227 13.153.297 4.417.071 8.75.029 13.295 0l1.161-24.239c-1.897-.099-3.412-.156-4.913-.227-7.122-.255-14.357-.424-21.564-.778-7.206-.354-9.005-2.365-8.764-9.487.113-3.907.213-7.631.326-11.539 0-3.823 0-7.645-.142-11.893l-26.491-.807-.085 4.616c-.184 6.527.015 13.096-.368 19.595-.382 6.499-2.435 7.801-8.566 7.646-6.725-.213-13.337-.51-20.062-.722-1.501-.057-2.917 0-4.73 0l-.07 27.17c.594.057 1.387.142 1.897.099 7.447 0 14.909-.028 22.328.156 1.812 0 3.611.184 5.381.566 1.189.128 2.321.85 3.129 1.841s1.076 2.223.948 3.426c-.014 4.928-.127 9.756-.156 14.683-.24 4.205-.113 8.651-.198 13.266l-.085-.113zM.314 146.208c.807-1.076 1.968-1.883 3.13-2.69 2.052-.807 4.247-1.132 6.357-1.175 29.69-.453 59.24-.934 88.874-1.26.58.042 1.203-.042 1.925.042 3.809.213 5.649 1.869 5.876 5.678.142 1.841.057 3.894.184 5.734.057 7.929.071 15.985 0 23.857.042 1.204.042 2.549-.212 3.809-.623 2.775-3.087 4.347-6.839 4.446-7.787.099-15.362-.028-23.15.085-22.568.127-45.137.241-67.65.241-.452 0-1.075.084-1.528.084-4.744-.084-6.995-2.321-7.222-7.022-.099-2.86-.056-5.692 0-8.509.029-6.4.071-12.8.1-19.214-.043-1.203.042-2.378.127-3.978l.043-.142zm96.76 4.205c-29.364.397-58.29.807-87.528 1.246.141 8.099-.34 15.844.127 23.461 9.402.878 84.797.227 87.67-.764l-.127-23.914-.141-.043zM71.943 40.67c2.266-.34 4.673-.44 7.066-.538 16.339.424 32.621 1.047 48.918 1.67 13.55.425 27.283.892 40.833 1.317 8.014.227 9.458 1.84 9.161 9.727-.213 7.193-.113 14.357-.255 21.663-.141 7.306-2.449 9.812-10.081 9.684-5.777-.056-11.511-.311-17.358-.481-23.716-.694-47.248-1.331-70.964-2.025-1.968 0-3.766-.255-5.748-.566-3.157-.609-4.375-1.87-4.658-5.14-.184-1.699-.156-3.355-.142-4.998-.099-7.985-.184-15.985-.283-23.97-.085-1.26.142-2.549.835-3.61.623-1.19 1.643-1.955 2.62-2.521l.056-.198zm5.862 8.863.312 22.64 90.091 2.449.241-21.974-90.573-2.988zM137.837 7.751c3.554 3.823 4.135 8.736 2.535 14.102-.68 2.209-1.742 4.304-3.144 6.117-1.401 1.812-3.143 3.327-5.281 4.417-8.198 4.488-17.387 1.996-21.917-6.017-1.218-2.082-1.883-4.319-2.096-6.655-.212-2.336 0-4.757.68-6.966.679-2.209 1.741-4.304 3.271-6.187 1.401-1.813 3.327-3.27 5.281-4.418 1.713-1.005 3.638-1.642 5.578-1.968 1.94-.325 3.979-.198 5.805.368 1.827.567 3.78 1.402 5.324 2.62 1.543 1.217 2.916 2.718 3.922 4.431l.071.128zm-10.265 16.353c1.954-1.147 3.228-2.888 3.908-5.083.552-2.138.411-4.346-.552-6.244-1.402-2.945-6.428-3.95-9.472-2.152-1.827 1.076-3.228 2.889-3.908 5.083-.552 2.138-.34 4.46.736 6.3.425.737.935 1.587 1.657 1.983.679.595 1.515.906 2.492 1.161.892.127 1.798.255 2.676.07.877-.183 1.685-.495 2.463-1.118M107.368 114.436c-5.111-8.156-1.628-19.568 6.188-24.155 7.32-4.304 16.65-2.393 20.558 3.695 2.988 4.814 5.012 9.374 3.299 15.136-.609 2.322-1.543 4.361-2.945 6.159a18.4 18.4 0 0 1-5.21 4.545c-8.057 4.729-17.415 2.506-22.074-5.437l.199.057zm17.217-2.549c1.827-1.076 3.229-2.888 3.979-4.969s.411-4.347-.425-6.315c-1.288-3.03-6.3-4.021-9.345-2.223-3.044 1.798-3.228 2.888-3.907 5.083-.552 2.138-.411 4.347.736 6.3.425.737.934 1.586 1.657 1.983.679.594 1.515.92 2.364 1.231.892.128 1.798.255 2.676.071s1.685-.495 2.464-1.118l-.199-.057z"/></svg>
